X: 26
T: Lark In The Morning, The
Z: UPipes & harp
S: https://thesession.org/tunes/62#setting51031
R: jig
M: 6/8
L: 1/8
K: Dmaj
A3 AFA|B3 {c}BdB|AFA DFA|fed BdB|
AFA DFA|B3 BAB|de/f/g afe|fdB BdB|
AFA AFA|BGB BdB|AFA AFA|fed BdB|
AFA AFA|BGB BAB|de/f/g afe|fdB {c}BAB||
|:def a3|baf afe|def afe|fdB {c}BAB|
def a3|baf afd|g3 faf|edB BAB:|
|:d2f fef|fef fef|d2f fef|edB BAB|
d2f fef|fef fef|g3 faf|1 edB BAB:|2 edB BAF||
|:Add fdd|edd fdd|Add fdd|edB BAF|Add fdd|
edd fdd|1 faf gfe|fdB BAF:|2 f/g/af g2 f|edB BdB||

